!!!!SEGMENT: pl-kozmzk--mzk-m-137--003_cwiklicz-boleslaw-jan--proszy-sniezyk-i-proszy-platkami.krn
!!!cenid: 18xx:2961
!!!COM: Ćwiklicz, Bolesław Jan
!!!COM-rism: pe41023611
!!!CDT: ~1800-~1899
!!!CNT: Polish
!!!OTL: Prószy śnieżyk i prószy płatkami
!!!PDT:
!!!AGN:
!!!SMS-siglum: PL-KOZmzk
!!!SMS-shelfmark: mzk/m/137
!!!NIFC-rismID: 1001084050
!!!URL-scan: https://repozytorium.nifc.pl/islandora/object/pl-kozmzk%3A1738/datastream/PDF/view
!!!ONB-nifc:
!!!SMS-variant:
!!!SMS-altvar:
**kern	**text	**text	**dynam	**kern	**text	**text	**dynam
*part2	*part2	*part2	*part2	*part1	*part1	*part1	*part1
*staff2	*staff2	*staff2	*	*staff1	*staff1	*staff1	*
*I"Coro	*	*	*	*I"Coro	*	*	*
*clefF4	*	*	*	*clefG2	*	*	*
*k[f#]	*	*	*	*k[f#]	*	*	*
*M5/4	*	*	*	*M5/4	*	*	*
=1	=1	=1	=1	=1	=1	=1	=1
*^	*	*	*	*^	*	*	*
!	!	!	!	!	!LO:TX:a:t=Z wolna a\ntęsknie.	!	!	!	!LO:DY:b:rj
4rA	4%5rAAA	.	.	.	8e/L	4r	Pró-	.	pp
!	!	!	!	!	!	!	!	!	!LO:HP:b
.	.	.	.	.	8g/J	.	-szy	.	<
4rA	.	.	.	.	2dd/	4re	Śnie-	.	.
!	!	!	!	!	!	!	!	!	!LO:HP:b
4rA	.	.	.	.	.	8e\L	.	(Pró-	[<
.	.	.	.	.	.	8g\J	.	-szy	.
4rA	.	.	.	.	4a#X/	4f#\	-żyk	śnie-	[
8rA	.	.	.	.	4f#/	4d#X\	i	-żyk	.
8BB/	.	(i	.	.	.	.	.	.	.
=2	=2	=2	=2	=2	=2	=2	=2	=2	=2
*ped	*	*	*	*	*	*	*	*	*
4C/	4r	pró-	.	.	4an/	2.e\	pró-	pła-)-	.
!	!	!	!	!	!	!	!	!	!LO:HP:b
4BB/	4r	-szy	.	.	4g/	.	-szy	.	>
4C/	4AA\	pła-)	(pła-)	.	4f#/	.	Pła-	.	.
4BB/	4AA\	.	.	.	(>8g/L	4d#X\	-tka-	.	.
.	.	.	.	.	8f#/J)	.	.	.	.
!	!	!	!	!	!	!	!	!	!LO:HP:b
4BB/	4GG\	.	.	.	4e/	4e\	-mi,	.	] <
=3	=3	=3	=3	=3	=3	=3	=3	=3	=3
!	!	!	!	!LO:DY:a	!	!	!	!	!
4.AA/	(<8AA\L	.	.	mf	4.cc/	4e\	Smu-	.	.
.	8GG\J)	.	.	.	.	.	.	.	.
.	(<8FF#\L	.	.	.	.	4e\	.	.	.
8BB/	8GG\J)	.	.	.	8b/	.	-tno	.	.
(>4C/	(<4AA\	.	.	.	2dd/	(>4f#\	mło-	.	[
4D/)	4BB\)	.	.	.	.	4g\)	.	.	.
8E/L	8C\L	.	.	.	8cc/L	8g\L	-dym	.	.
8D/J	8D\J	.	.	.	8b/J	8g\J	jest	.	.
!!LO:LB:g=original
=4	=4	=4	=4	=4	=4	=4	=4	=4	=4
4D/	4C\	.	.	.	4a/	4f#\	w du-	.	.
8D/L	8BB\L	.	.	.	8g/L	8g\L	-szy,	.	.
!	!	!	!	!	!	!	!	!	!LO:HP:b
8C/J	8AA\J	.	.	.	8f#/J	8e\J	gdy	.	>
(4.BB/	2AA\	.	.	.	2b/	(>4.d#X\	sa-	.	.
8C#X/)	.	.	.	.	.	8e\)	.	.	.
4D#X/	4AA\	.	.	.	4b/	4f#\	-mi	.	.
=5	=5	=5	=5	=5	=5	=5	=5	=5	=5
!	!	!	!	!	!	!	!	!	!LO:DY:b:rj
(>4E/	(<4GG\	.	.	.	(4ee/	(8b\L	Smu-	.	] f
.	.	.	.	.	.	8cc\J	.	.	.
8F#/L	4.BB\)	.	.	.	4dd#X/)	4b\)	.	.	.
8E/J)	.	.	.	.	.	.	.	.	.
4D#X/	.	.	.	.	4b/	(8f#\L	-tniej	.	.
.	8AA\	.	.	.	.	8b\J)	.	.	.
!	!	!	!	!	!	!	!	!	!LO:HP:b
(>8E/L	4GG#X\	.	.	.	4ddn/	4b\	je-	.	>
8Fn/J)	.	.	.	.	.	.	.	.	.
8E/L	8AA\L	.	.	.	8cc#X/L	8a\L	-szcze,	.	.
8E/J	8C#X\J	.	.	.	8a/J	8a\J	gdy	.	.
=6	=6	=6	=6	=6	=6	=6	=6	=6	=6
4E/	4Cn\	.	.	.	4ccn/	(<8g\L	trze-	.	.
.	.	.	.	.	.	8f#X\J)	.	.	.
4D/	4.D\	.	.	.	4b/	4g\	-ba	.	.
4D/	.	.	.	.	4a/	4f#\	Iść	.	.
.	8C\	.	.	.	.	.	.	.	.
4D/	(<8BB\L	.	.	.	(>8dd/L	4f#\	dro-	.	.
.	8AA\J)	.	.	.	8cc/J)	.	.	.	.
!	!	!	!	!	!	!	!	!	!LO:HP:b
4D/	4GG\	.	.	.	4b/	4g\	-gą	.	] <
=7	=7	=7	=7	=7	=7	=7	=7	=7	=7
4E/	4C\	.	.	.	4a/	4g\	I	.	.
!	!	!	!	!	!LO:TX:t=P:problem:łamanie systemu	!	!	!	!
4E/	4BB\	.	.	.	4b/	4g\	nie	.	.
2E/	(4AA\	.	.	.	2cc/	2a\	wi-	.	.
.	4FF#\)	.	.	.	.	.	.	.	.
8D#X/L	8BB\L	.	.	.	8b/L	8f#\L	-dzieć	.	.
8E/J	8C\J	.	.	.	8a/J	8e\J	.	.	.
!!LO:LB:g=original
=8	=8	=8	=8	=8	=8	=8	=8	=8	=8
4BB/	4BB\	.	.	.	4g#X/	4e\	prócz	.	[
!	!	!	!	!	!	!	!`	!	!LO:HP:b
8BB/L	8AA\L	.	.	.	8f#/L	8d#X\L	nie-	.	>
8BB/J	8AA\J	.	.	.	8b/J	8d#\J	-ba	.	.
(>4.BB/	(<4.GG#X\	.	.	.	2b/	(>4c#X\	Ni-	.	.
.	.	.	.	.	.	4d#\)	-ko-	.	.
8AA/)	8FF#\)	.	.	.	.	.	.	.	.
!	!	!	!	!	!	!	!	!	!LO:HP:b
4GG#X/	4EE\	.	.	.	4b/	4e\	-go.	.	] <
=9	=9	=9	=9	=9	=9	=9	=9	=9	=9
8Cn/L	8AA\L	.	.	.	4a/	4e\	A	.	.
8E/J	8C\J	.	.	.	.	.	.	.	.
!	!	!	!	!	!`	!LO:SIC:s:v:t=naj	!	!	!
2E/	2E\	.	.	.	4b/	4g#X\	na-	.	.
.	.	.	.	.	4cc/	4a\	-jsmu-	.	.
4F#/	4D#X\	.	.	.	4b/	4f#\	-tniej ,	.	[
4D#X/	4BB\	.	.	.	4f#/	4f#\	gdy	.	.
=10	=10	=10	=10	=10	=10	=10	=10	=10	=10
4E/	4Dn\	.	.	.	4g#X/	4e\	dro-	.	.
4F#/	4C\	.	.	.	4a/	4e\	-ga	.	.
!	!	!	!	!	!	!	!	!	!LO:HP:b
4G#X/	4BB\	.	.	.	4b/	4e\	Da-	.	>
4A/	(>8AA\L	.	.	.	4cc/	4e\	-le-	.	.
.	8FF#\J)	.	.	.	.	.	.	.	.
4F#/	4BB\	.	.	.	4b/	4d#X\	-ka	.	.
=11	=11	=11	=11	=11	=11	=11	=11	=11	=11
!	!	!	!	!	!	!	!	!	!LO:HP:b
8E/L	8E\L	.	.	.	(>8e/L	4e\	I	.	] <
8Gn/J	8BB\J	.	.	.	8gn/J)	.	.	.	.
2B/	(>8D#X\L	.	.	.	2b/	(>8f#\L	wnet	.	.
.	8BB\J	.	.	.	.	8d#X\	.	.	.
.	4C#X\)	.	.	.	.	8e\	.	.	[
.	.	.	.	.	.	8g\J)	.	.	.
!	!	!	!	!	!	!LO:SIC:s:v:t=w koń-	!	!	!
4A#X/	4FF#\	.	.	.	4a#X/	(>8f#\L	w ko-	.	.
.	.	.	.	.	.	8e\J)	.	.	.
8F#/L	8BB\L	.	.	.	8f#/L	8d#\L	-ńcu	.	.
8G/J	8BB\J	.	.	.	8g/J	8d#\J	prócz	.	.
!!LO:PB:g=original
=12	=12	=12	=12	=12	=12	=12	=12	=12	=12
4An/	(>8C\L	.	.	.	4an/	4e\	Bo-	.	.
.	8FF#\J)	.	.	.	.	.	.	.	.
!	!	!	!	!	!	!	!	!	!LO:HP:b
4G/	(>8BB\L	.	.	.	4g/	4e\	-ga	.	>
.	8AA#X\J)	.	.	.	.	.	.	.	.
4F#/	(>8AAn\L	.	.	.	4f#/	4e\	nie	.	.
.	8C\J)	.	.	.	.	.	.	.	.
(8G/L	(>8BB\L	.	.	.	(>8g/L	4d#X\	cze-	.	.
8F#/J)	8AA\J)	.	.	.	8f#/J)	.	.	.	.
!	!	!	!	!	!	!	!	!	!LO:HP:b
4E/	4GG\	.	.	.	4e/	4e\	-ka...	.	]<
=13	=13	=13	=13	=13	=13	=13	=13	=13	=13
*	*	*	*	*	*	*	*	*	*^
!	!	!	!	!	!	!	!	!	!	!LO:DY:a
(>8E/L	2C\	.	.	.	4e/	4c\	I	.	.	ff
8F#/J)	.	.	.	.	.	.	.	.	.	.
!	!	!	!	!LO:DY:a	!	!	!	!	!	!
2G/	.	.	.	ff	2ee/	2cc\	nikt	.	.	.
.	(>8BB\L	.	.	.	.	.	.	.	[	.
.	8AA\J)	.	.	.	.	.	.	.	.	.
!	!	!	!	!	!	!LO:SIC:v:s:t=w koń-	!	!	!LO:HP:b	!
4G/	4BB\	.	.	.	4dd/	4g\	w ko-	.	>	.
8E/L	8C\L	.	.	.	8cc/L	8g\L	-ńcu	.	.	.
!	!	!	!	!	!	!	!	!	!LO:HP:b	!
8D/J	8D\J	.	.	.	8b/J	8g\J	prócz	.	]<	.
*	*	*	*	*	*	*	*	*	*v	*v
=14	=14	=14	=14	=14	=14	=14	=14	=14	=14
4E/	4C\	.	.	.	2gg/	2g\	Bo-	.	.
4D/	4BB\	.	.	.	.	.	.	.	.
!	!	!	!	!	!	!	!	!	!LO:HP:b
4C#X/	4AA#X\	.	.	.	8ff#/L	8g\L	-ga	.	[ >
.	.	.	.	.	8ee/J	8g\J	nie	.	.
4F#/	4BB\	.	.	.	4dd#X/	(>8b\L	cze-	.	.
.	.	.	.	.	.	8an\J)	.	.	.
4E/	4EE\ 4BB	.	.	.	4ee/	4g\	-ka...	.	.
=15	=15	=15	=15	=15	=15	=15	=15	=15	=15
[>2.E/	[<2.EE\ [>2.BB	.	.	.	(>2.ff#/	(<4b\ (>4dd#X	Nikt!..  )	.	.
.	.	.	.	.	.	4.a#X\ 4.cc#X	.	.	.
.	.	.	.	.	.	8dd# 8an	.	.	.
2E/]	2EE\] 2BB]	.	.	.	2ee/)	2g\)) 2ee	.	.	]
*v	*v	*	*	*	*	*	*	*	*
*	*	*	*	*v	*v	*	*	*
!!LO:LB:g=original
==	==	==	==	==	==	==	==
*-	*-	*-	*-	*-	*-	*-	*-
!!!system-decoration: s1,s2
!!!ENC: Tomasz Grochalski
!!!END: 2021-08-12
!!!EED: Jędrzej Mróz
!!!ESR: 2021-09-10
!!!RDF**kern: > = above
!!!RDF**kern: < = below
